_site/_assets/img/icons/s-facebook.svg

<svg width="48" height="48" viewBox="0 0 48 48" fill="none" xmlns="http://www.w3.org/2000/svg">
<path d="M46 24.134C46 11.9084 36.1516 2 24 2C11.8484 2 2 11.9084 2 24.134C2 35.1837 10.0437 44.3399 20.5625 46V30.5321H14.9766V24.134H20.5625V19.2576C20.5625 13.7111 23.8453 10.6461 28.8727 10.6461C31.2789 10.6461 33.7969 11.0784 33.7969 11.0784V16.5254H31.0211C28.2883 16.5254 27.4375 18.2331 27.4375 19.9839V24.134H33.5391L32.5637 30.5321H27.4375V46C37.9563 44.3399 46 35.1837 46 24.134Z" fill="white"/>
</svg>

<svg width="48" height="48" fill="none" xmlns="http://www.w3.org/2000/svg"><path d="M46 24.134C46 11.908 36.152 2 24 2S2 11.908 2 24.134C2 35.184 10.044 44.34 20.563 46V30.532h-5.586v-6.398h5.585v-4.876c0-5.547 3.283-8.612 8.31-8.612 2.407 0 4.925.432 4.925.432v5.447H31.02c-2.733 0-3.584 1.708-3.584 3.459v4.15h6.102l-.975 6.398h-5.127V46C37.957 44.34 46 35.184 46 24.134z" fill="#fff"/></svg>
